assets/icons/html-filled.svg

<?xml version="1.0" encoding="UTF-8" standalone="no"?>
<svg
   viewBox="0 0 24 24"
   height="24"
   id="svg7384"
   version="1.1"
   width="24"
   sodipodi:docname="html-filled.svg"
   inkscape:version="1.2 (1:1.2.1+202207142221+cd75a1ee6d)"
   xmlns:inkscape="http://www.inkscape.org/namespaces/inkscape"
   xmlns:sodipodi="http://sodipodi.sourceforge.net/DTD/sodipodi-0.dtd"
   xmlns="http://www.w3.org/2000/svg"
   xmlns:svg="http://www.w3.org/2000/svg"
   xmlns:rdf="http://www.w3.org/1999/02/22-rdf-syntax-ns#"
   xmlns:cc="http://creativecommons.org/ns#"
   xmlns:dc="http://purl.org/dc/elements/1.1/">
  <sodipodi:namedview
     id="namedview21"
     pagecolor="#ffffff"
     bordercolor="#666666"
     borderopacity="1.0"
     inkscape:pageshadow="2"
     inkscape:pageopacity="0.0"
     inkscape:pagecheckerboard="0"
     showgrid="true"
     width="24px"
     inkscape:zoom="27.999993"
     inkscape:cx="12.535717"
     inkscape:cy="9.0000023"
     inkscape:window-width="1920"
     inkscape:window-height="1043"
     inkscape:window-x="0"
     inkscape:window-y="0"
     inkscape:window-maximized="1"
     inkscape:current-layer="svg7384"
     inkscape:showpageshadow="2"
     inkscape:deskcolor="#d1d1d1">
    <inkscape:grid
       type="xygrid"
       id="grid837"
       dotted="false" />
    <inkscape:grid
       type="xygrid"
       id="grid839"
       dotted="true"
       spacingx="0.5"
       spacingy="0.5"
       empspacing="10" />
  </sodipodi:namedview>
  <metadata
     id="metadata20854">
    <rdf:RDF>
      <cc:Work
         rdf:about="">
        <dc:format>image/svg+xml</dc:format>
        <dc:type
           rdf:resource="http://purl.org/dc/dcmitype/StillImage" />
      </cc:Work>
    </rdf:RDF>
  </metadata>
  <defs
     id="defs7386">
    <linearGradient
       id="linearGradient5606"
       inkscape:swatch="solid">
      <stop
         id="stop5608"
         offset="0"
         style="stop-color:#000000;stop-opacity:1;" />
    </linearGradient>
    <linearGradient
       id="linearGradient4526"
       inkscape:swatch="solid">
      <stop
         id="stop4528"
         offset="0"
         style="stop-color:#ffffff;stop-opacity:1;" />
    </linearGradient>
    <linearGradient
       id="linearGradient3600-4"
       inkscape:swatch="gradient">
      <stop
         id="stop3602-7"
         offset="0"
         style="stop-color:#f4f4f4;stop-opacity:1" />
      <stop
         id="stop3604-6"
         offset="1"
         style="stop-color:#dbdbdb;stop-opacity:1" />
    </linearGradient>
  </defs>
  <path
     id="path874"
     style="color:#000000;fill:#808080;fill-opacity:1"
     d="M 6.4550781 2 C 5.4864992 2.0089807 4.7372579 2.0732701 4.1171875 2.4453125 C 3.7038072 2.6933408 3.3972494 3.101221 3.2285156 3.6074219 C 3.0597821 4.1136228 3 4.7222246 3 5.5 L 3 18.5 C 3 19.277775 3.0585584 19.891311 3.25 20.408203 C 3.4414417 20.925097 3.8029643 21.335075 4.2773438 21.572266 C 5.2261025 22.046644 6.500006 22 8.5 22 L 15.5 22 C 16.999996 22 18.056052 22.050739 18.882812 21.554688 C 19.296194 21.30666 19.602752 20.89878 19.771484 20.392578 C 19.940218 19.886378 20 19.277775 20 18.5 L 20 8 L 15 8 L 14 8 L 14 2 L 7.5 2 C 7.1250011 2 6.7779378 1.9970064 6.4550781 2 z M 15 2.2929688 L 15 7 L 19.707031 7 L 15 2.2929688 z M 11.953125 10.376953 L 13.042969 10.648438 L 11.046875 18.623047 L 9.9570312 18.351562 L 11.892578 10.619141 L 11.953125 10.376953 z M 9.25 11.814453 L 9.25 13.078125 L 6.4804688 14.5 L 9.25 15.921875 L 9.25 17.185547 L 5 15.003906 L 5 13.996094 L 8.8867188 12 L 9.25 11.814453 z M 13.75 11.814453 L 18 13.996094 L 18 15.003906 L 13.75 17.185547 L 13.75 15.921875 L 16.519531 14.5 L 13.75 13.078125 L 13.75 12.222656 L 13.75 11.814453 z " />
  <g
     id="layer9"
     label="status"
     style="display:inline"
     transform="translate(-613.0002,327)" />
  <g
     id="layer4"
     style="display:inline"
     transform="translate(-372,-39.999996)" />
  <g
     id="g1812"
     style="display:inline"
     transform="translate(-372,-39.999996)" />
  <g
     id="g6217"
     style="display:inline"
     transform="translate(-372,-39.999996)" />
  <g
     id="layer3"
     style="display:inline"
     transform="translate(-372,-39.999996)" />
  <g
     id="g1833"
     style="display:inline"
     transform="translate(-372,-39.999996)" />
  <g
     id="layer1"
     style="display:inline"
     transform="translate(-372,-39.999996)" />
</svg>

<svg height="24" width="24" xmlns="http://www.w3.org/2000/svg"><path style="color:#000;fill:gray;fill-opacity:1" d="M6.455 2c-.969.009-1.718.073-2.338.445-.413.248-.72.656-.888 1.162C3.059 4.114 3 4.722 3 5.5v13c0 .778.059 1.391.25 1.908.191.517.553.927 1.027 1.164.95.475 2.223.428 4.223.428h7c1.5 0 2.556.05 3.383-.445.413-.248.72-.656.888-1.162.17-.507.229-1.115.229-1.893V8h-6V2H7.5c-.375 0-.722-.003-1.045 0zM15 2.293V7h4.707L15 2.293zm-3.047 8.084 1.09.271-1.996 7.975-1.09-.271 1.936-7.733.06-.242zM9.25 11.814v1.264L6.48 14.5l2.77 1.422v1.264L5 15.004v-1.008L8.887 12l.363-.186zm4.5 0L18 13.996v1.008l-4.25 2.182v-1.264l2.77-1.422-2.77-1.422v-1.264z"/></svg>
